assets/Person shrugging/Dark/Flat/person_shrugging_flat_dark.svg

<svg width="32" height="32" viewBox="0 0 32 32" fill="none" xmlns="http://www.w3.org/2000/svg">
<path d="M8.31377 15.4089L6.79229 14.9114L4.99377 15.4089V17.0489H8.31377V15.4089Z" fill="#F95725"/>
<path d="M23.6738 15.4089L25.229 14.8022L27.0038 15.4089V17.0489H23.6738V15.4089Z" fill="#F95725"/>
<path d="M26.7538 16.4089H23.8738C23.4638 16.4089 23.1338 16.7389 23.1338 17.1489V19.5889C23.1338 19.7189 22.9938 19.7989 22.8738 19.7389L20.2938 18.3489C20.2538 18.3289 20.2138 18.2989 20.1738 18.2789L20.1238 18.2489C19.5038 17.9389 18.8038 17.7589 18.0538 17.7589H13.9638C13.2038 17.7589 12.4938 17.9389 11.8638 18.2689L9.09377 19.7289C8.99377 19.7989 8.84377 19.7189 8.84377 19.5889V17.1489C8.84377 16.7389 8.51377 16.4089 8.10377 16.4089H5.23377C4.82377 16.4089 4.49377 16.7389 4.49377 17.1489V22.2189C4.49377 23.2689 5.05377 24.2489 5.95377 24.7789C6.41377 25.0489 6.94377 25.1889 7.46377 25.1889C7.96377 25.1889 8.45377 25.0689 8.90377 24.8189L9.38377 24.5689V28.9989H22.6538V24.5989L23.0738 24.8189C23.5238 25.0689 24.0138 25.1889 24.5138 25.1889C25.0338 25.1889 25.5638 25.0489 26.0238 24.7789C26.9238 24.2489 27.4838 23.2689 27.4838 22.2189V17.1489C27.4938 16.7389 27.1638 16.4089 26.7538 16.4089Z" fill="#FF6723"/>
<path d="M14.0238 17.5981V18.3288C14.0238 19.4188 14.9038 20.2988 15.9938 20.2988C17.0838 20.2988 17.9638 19.4188 17.9638 18.3288V17.4055L15.9938 17.0173L14.0238 17.5981Z" fill="#452829"/>
<path d="M2.1438 12.9287L2.39206 13.2188C2.17218 13.4317 2.15033 13.7866 2.35381 14.0288C2.35381 14.0288 2.54381 14.2488 2.89381 14.6588C3.30381 15.1388 3.90381 15.4088 4.53381 15.4088H8.31381V13.5988C8.31381 12.7388 8.00381 11.9188 7.43381 11.2688L6.94381 10.7088C6.67381 10.3988 6.20381 10.3588 5.89381 10.6288C5.58381 10.8988 5.55381 11.3688 5.81381 11.6788L6.14381 12.0588C6.21381 12.1288 6.15381 12.2488 6.05381 12.2488L5.19942 12.2389L4.2838 11.1688C4.0738 10.9188 3.6938 10.8888 3.4538 11.1088C3.38944 11.1629 3.33966 11.2275 3.30481 11.2978C3.08958 11.1054 2.7618 11.0981 2.53381 11.2987C2.33485 11.4728 2.28021 11.7569 2.38697 11.9913C2.32138 12.0146 2.25914 12.0503 2.2038 12.0987C1.9538 12.3087 1.9338 12.6787 2.1438 12.9287Z" fill="#573739"/>
<path d="M29.8538 12.9289L29.6002 13.2234C29.8157 13.4368 29.8362 13.7887 29.6438 14.0388C29.6438 14.0388 29.4538 14.2588 29.1038 14.6688C28.6938 15.1488 28.0938 15.4188 27.4638 15.4188H23.6838V13.6088C23.6838 12.7588 23.9938 11.9288 24.5538 11.2788L25.0438 10.7188C25.3138 10.4088 25.7838 10.3688 26.0938 10.6388C26.4038 10.9088 26.4438 11.3788 26.1738 11.6888L25.8438 12.0588C25.7738 12.1288 25.8338 12.2488 25.9338 12.2488L26.7927 12.2388L27.7138 11.1689C27.9238 10.9189 28.2938 10.8989 28.5438 11.1089C28.6066 11.1617 28.6549 11.2245 28.6886 11.293C28.9039 11.1071 29.2279 11.109 29.4538 11.2988C29.6604 11.4724 29.7099 11.7552 29.6023 11.9893C29.6703 12.0133 29.7353 12.0498 29.7938 12.0989C30.0438 12.3089 30.0638 12.6789 29.8538 12.9289Z" fill="#573739"/>
<path d="M20.8537 6.57886C20.5437 6.13886 20.1037 5.84886 19.6137 5.72886C19.0837 5.59886 18.6137 5.30886 18.2937 4.86886C17.8637 4.28886 17.1537 3.93886 16.3837 4.00886C16.0837 4.03886 15.8137 4.11886 15.5637 4.24886C15.2337 4.42886 14.8337 4.45886 14.4737 4.34886C14.2037 4.25886 13.9237 4.22886 13.6237 4.24886C12.8637 4.31886 12.2337 4.76886 11.9137 5.39886C11.6737 5.88886 11.2637 6.27886 10.7537 6.50886C10.2837 6.71886 9.88373 7.10886 9.65373 7.62886C9.34373 8.37886 9.49373 9.21886 9.98373 9.81886C10.1637 10.0389 10.2737 10.2989 10.3037 10.5789L10.6337 14.2989C10.7007 15.0926 11.999 15.9899 11.999 15.9899C11.999 15.9899 16.7398 15.2423 20.1246 15.2423C20.1246 15.2423 21.1683 14.1447 21.1037 13.3789L20.7737 9.65886C20.7537 9.37886 20.8137 9.09886 20.9537 8.84886C21.3637 8.16886 21.3437 7.27886 20.8537 6.57886Z" fill="black"/>
<path d="M10.9497 10.7235C10.2972 10.8862 9.81372 11.4761 9.81372 12.179C9.81372 13.0074 10.4853 13.679 11.3137 13.679C11.3439 13.679 11.3738 13.6781 11.4036 13.6764L11.9793 12.179L10.9497 10.7235Z" fill="#4E3233"/>
<path d="M20.2908 12.9004C21.0066 12.7867 21.5537 12.1668 21.5537 11.419C21.5537 10.6456 20.9683 10.0089 20.2165 9.92773L19.1866 11.6354L20.2908 12.9004Z" fill="#4E3233"/>
<path d="M17.5437 8.02872L18.8167 7.91566C19.5056 7.88705 20.1048 8.39328 20.1951 9.07263L20.3237 14.2187C20.2437 15.9987 18.8537 17.4387 17.0837 17.5987L15.3837 17.7387C13.6037 17.8987 11.9937 16.7187 11.6037 14.9787L10.9393 10.6558L10.8837 9.9888C10.7337 8.3088 11.9837 6.8288 13.6637 6.6788L14.9129 6.56812C15.1213 6.58256 15.3174 6.70729 15.4137 6.90872C15.8437 7.66872 16.6737 8.10872 17.5437 8.02872Z" fill="#573739"/>
<path d="M15.9638 15.4789C16.2565 15.4789 16.4938 15.2417 16.4938 14.9489C16.4938 14.6562 16.2565 14.4189 15.9638 14.4189C15.6711 14.4189 15.4338 14.6562 15.4338 14.9489C15.4338 15.2417 15.6711 15.4789 15.9638 15.4789Z" fill="#290118"/>
<path d="M15.3338 11.5789L14.9938 13.1489C14.9238 13.4689 15.1838 13.7689 15.5138 13.7389L16.2138 13.6789C16.5438 13.6489 16.7438 13.3089 16.6238 13.0089L16.0138 11.5189C15.8838 11.1889 15.4038 11.2289 15.3338 11.5789Z" fill="#3D2123"/>
<path d="M19.0938 11.2289C18.9038 10.6789 18.3738 10.3189 17.7738 10.3689C17.1538 10.4189 16.6738 10.9089 16.6138 11.5089C16.6038 11.6389 16.7138 11.7489 16.8438 11.7389L18.8738 11.5589C19.0338 11.5489 19.1438 11.3789 19.0938 11.2289Z" fill="white"/>
<path d="M12.2538 11.8189C12.3438 11.2589 12.8038 10.7989 13.4038 10.7489C14.0238 10.6889 14.5838 11.0889 14.7438 11.6689C14.7738 11.7889 14.6838 11.9189 14.5538 11.9289L12.5238 12.1089C12.3638 12.1189 12.2238 11.9789 12.2538 11.8189Z" fill="white"/>
<path d="M18.4938 11.3688C18.4538 10.9188 18.0538 10.5888 17.6038 10.6288C17.1538 10.6688 16.8238 11.0588 16.8638 11.5188C16.8738 11.5888 16.8938 11.6588 16.9138 11.7288L18.4838 11.5888C18.4938 11.5188 18.5038 11.4388 18.4938 11.3688Z" fill="#7D4533"/>
<path d="M12.8738 11.8689C12.8338 11.4189 13.1638 11.0189 13.6138 10.9789C14.0638 10.9389 14.4638 11.2689 14.5038 11.7189C14.5138 11.7989 14.5038 11.8689 14.4938 11.9389L12.9238 12.0789C12.8955 12.0224 12.885 11.9481 12.8755 11.8812C12.8749 11.8771 12.8744 11.873 12.8738 11.8689Z" fill="#7D4533"/>
<path d="M17.6337 10.979C17.3737 10.999 17.1837 11.229 17.2137 11.479C17.2137 11.559 17.2437 11.629 17.2937 11.689L18.1137 11.619C18.1337 11.549 18.1537 11.479 18.1437 11.399C18.1137 11.149 17.8937 10.959 17.6337 10.979Z" fill="black"/>
<path d="M13.6438 11.3288C13.9038 11.2988 14.1338 11.4888 14.1538 11.7488C14.1638 11.8288 14.1438 11.8988 14.1138 11.9788L13.2938 12.0488C13.2538 11.9888 13.2338 11.9188 13.2238 11.8388C13.1938 11.5788 13.3838 11.3488 13.6438 11.3288Z" fill="black"/>
<path d="M17.5438 11.1388C17.5438 11.2216 17.4766 11.2888 17.3938 11.2888C17.3109 11.2888 17.2438 11.2216 17.2438 11.1388C17.2438 11.0559 17.3109 10.9888 17.3938 10.9888C17.4766 10.9888 17.5438 11.0559 17.5438 11.1388Z" fill="white"/>
<path d="M13.5338 11.4889C13.5338 11.5717 13.4666 11.6389 13.3838 11.6389C13.3009 11.6389 13.2338 11.5717 13.2338 11.4889C13.2338 11.406 13.3009 11.3389 13.3838 11.3389C13.4666 11.3389 13.5338 11.406 13.5338 11.4889Z" fill="white"/>
<path d="M18.4638 9.1088C18.5038 9.1388 18.5438 9.1488 18.5938 9.1488C18.6738 9.1488 18.7638 9.1088 18.8138 9.0388C18.8838 8.9188 18.8538 8.7588 18.7338 8.6888C18.7038 8.6688 17.9838 8.2088 16.9938 8.4188C16.8638 8.4488 16.7738 8.5788 16.8038 8.7188C16.8338 8.8488 16.9738 8.9388 17.1038 8.9088C17.8153 8.76285 18.3521 9.04959 18.4484 9.10107C18.4577 9.10602 18.4638 9.1088 18.4638 9.1088Z" fill="black"/>
<path d="M12.1637 9.61876C12.2037 9.66876 12.2737 9.69876 12.3437 9.69876C12.4037 9.69876 12.4637 9.67876 12.5037 9.63876C12.5037 9.63876 12.5104 9.63427 12.5205 9.62619C12.6144 9.55168 13.092 9.17268 13.8137 9.20876C13.9537 9.20876 14.0737 9.10876 14.0737 8.96876C14.0837 8.82876 13.9737 8.70876 13.8337 8.70876C12.8858 8.67159 12.2919 9.16992 12.1887 9.25656C12.1808 9.26314 12.1758 9.26735 12.1737 9.26876C12.0737 9.35876 12.0737 9.51876 12.1637 9.61876Z" fill="black"/>
</svg>

<svg xmlns="http://www.w3.org/2000/svg" width="32" height="32" fill="none"><path fill="#F95725" d="m8.314 15.409-1.522-.498-1.798.498v1.64h3.32v-1.64ZM23.674 15.409l1.555-.607 1.775.607v1.64h-3.33v-1.64Z"/><path fill="#FF6723" d="M26.754 16.409h-2.88c-.41 0-.74.33-.74.74v2.44c0 .13-.14.21-.26.15l-2.58-1.39c-.04-.02-.08-.05-.12-.07l-.05-.03c-.62-.31-1.32-.49-2.07-.49h-4.09c-.76 0-1.47.18-2.1.51l-2.77 1.46c-.1.07-.25-.01-.25-.14v-2.44c0-.41-.33-.74-.74-.74h-2.87c-.41 0-.74.33-.74.74v5.07c0 1.05.56 2.03 1.46 2.56.46.27.99.41 1.51.41.5 0 .99-.12 1.44-.37l.48-.25v4.43h13.27v-4.4l.42.22c.45.25.94.37 1.44.37.52 0 1.05-.14 1.51-.41a2.98 2.98 0 0 0 1.46-2.56v-5.07a.724.724 0 0 0-.73-.74Z"/><path fill="#452829" d="M14.024 17.598v.73c0 1.09.88 1.97 1.97 1.97 1.09 0 1.97-.88 1.97-1.97v-.922l-1.97-.389-1.97.581Z"/><path fill="#573739" d="m2.144 12.929.248.29a.596.596 0 0 0-.038.81s.19.22.54.63c.41.48 1.01.75 1.64.75h3.78v-1.81c0-.86-.31-1.68-.88-2.33l-.49-.56a.745.745 0 0 0-1.05-.08c-.31.27-.34.74-.08 1.05l.33.38c.07.07.01.19-.09.19l-.855-.01-.915-1.07a.578.578 0 0 0-.83-.06.587.587 0 0 0-.15.189.578.578 0 0 0-.77 0 .595.595 0 0 0-.147.693.587.587 0 0 0-.243.937ZM29.854 12.929l-.254.294a.62.62 0 0 1 .044.816s-.19.22-.54.63c-.41.48-1.01.75-1.64.75h-3.78v-1.81c0-.85.31-1.68.87-2.33l.49-.56a.745.745 0 0 1 1.13.97l-.33.37c-.07.07-.01.19.09.19l.859-.01.92-1.07c.21-.25.58-.27.83-.06a.567.567 0 0 1 .146.184.59.59 0 0 1 .913.696.587.587 0 0 1 .252.94Z"/><path fill="#000" d="M20.854 6.579c-.31-.44-.75-.73-1.24-.85-.53-.13-1-.42-1.32-.86-.43-.58-1.14-.93-1.91-.86-.3.03-.57.11-.82.24-.33.18-.73.21-1.09.1a2.126 2.126 0 0 0-2.56 1.05c-.24.49-.65.88-1.16 1.11-.47.21-.87.6-1.1 1.12-.31.75-.16 1.59.33 2.19.18.22.29.48.32.76l.33 3.72c.067.794 1.365 1.69 1.365 1.69s4.74-.747 8.126-.747c0 0 1.043-1.097.979-1.863l-.33-3.72c-.02-.28.04-.56.18-.81.41-.68.39-1.57-.1-2.27Z"/><path fill="#4E3233" d="M10.95 10.723a1.5 1.5 0 0 0 .454 2.953l.575-1.497-1.03-1.456ZM20.29 12.9a1.5 1.5 0 0 0-.073-2.972l-1.03 1.707L20.29 12.9Z"/><path fill="#573739" d="m17.544 8.029 1.273-.113a1.338 1.338 0 0 1 1.378 1.157l.129 5.146a3.56 3.56 0 0 1-3.24 3.38l-1.7.14a3.543 3.543 0 0 1-3.78-2.76l-.665-4.323-.055-.667a3.058 3.058 0 0 1 2.78-3.31l1.249-.11c.208.014.404.138.5.34.43.76 1.26 1.2 2.13 1.12Z"/><path fill="#290118" d="M15.964 15.479a.53.53 0 1 0 0-1.06.53.53 0 0 0 0 1.06Z"/><path fill="#3D2123" d="m15.334 11.579-.34 1.57c-.07.32.19.62.52.59l.7-.06a.49.49 0 0 0 .41-.67l-.61-1.49c-.13-.33-.61-.29-.68.06Z"/><path fill="#fff" d="M19.094 11.229c-.19-.55-.72-.91-1.32-.86-.62.05-1.1.54-1.16 1.14-.01.13.1.24.23.23l2.03-.18c.16-.01.27-.18.22-.33ZM12.254 11.819c.09-.56.55-1.02 1.15-1.07.62-.06 1.18.34 1.34.92.03.12-.06.25-.19.26l-2.03.18c-.16.01-.3-.13-.27-.29Z"/><path fill="#7D4533" d="M18.494 11.369a.819.819 0 0 0-1.63.15c.01.07.03.14.05.21l1.57-.14c.01-.07.02-.15.01-.22ZM12.874 11.869a.819.819 0 1 1 1.62.07l-1.57.14c-.028-.057-.039-.13-.048-.198l-.002-.012Z"/><path fill="#000" d="M17.634 10.979c-.26.02-.45.25-.42.5 0 .08.03.15.08.21l.82-.07c.02-.07.04-.14.03-.22a.477.477 0 0 0-.51-.42ZM13.644 11.329c.26-.03.49.16.51.42.01.08-.01.15-.04.23l-.82.07a.476.476 0 0 1-.07-.21c-.03-.26.16-.49.42-.51Z"/><path fill="#fff" d="M17.544 11.139a.15.15 0 1 1-.3 0 .15.15 0 0 1 .3 0ZM13.534 11.489a.15.15 0 1 1-.3 0 .15.15 0 0 1 .3 0Z"/><path fill="#000" d="M18.464 9.109c.04.03.08.04.13.04.08 0 .17-.04.22-.11.07-.12.04-.28-.08-.35-.03-.02-.75-.48-1.74-.27-.13.03-.22.16-.19.3.03.13.17.22.3.19a2.017 2.017 0 0 1 1.344.192l.016.008ZM12.164 9.619c.04.05.11.08.18.08.06 0 .12-.02.16-.06l.017-.013c.093-.074.571-.453 1.293-.417.14 0 .26-.1.26-.24.01-.14-.1-.26-.24-.26a2.413 2.413 0 0 0-1.645.548l-.015.012c-.1.09-.1.25-.01.35Z"/></svg>
